X: 3132
T: The Original Lango Lee
O: Irish
%R: air, waltz, jig
N: This is version 2, for ABC software that understands voice overlays.
B: Niel Gow & Sons "Complete Repository" v.3 p.13 #2
Z: 2021 John Chambers <jc:trillian.mit.edu>
M: 6/8
L: 1/8
Q: "Slow"
K: A
% - - - - - - - - - -
V: 1 staves=2
|:\
A3 {AB}c3 | TB>AB cAF | TE>FA A2f | edc TB2A :| c>de ef=g | Tf>ed {d}cBA |
Tc>de efg | Tg3 {fg}az A | (Ace agf) | e(dc) HTB2 !p!A | (AE)F (AE)F | (Ad).c TB2A |]
% - - - - - - - - - -
V: 2 clef=bass middle=d
|:\
(Ac)e (ac').a | e3 f2d | c3 A2d | cBA E2A :|
[c'3e'3] e'3 & a>bc' c'3 | d(fg) a3 | [c'2e'2] x4 & abc' c'd'b | x3 c'x2 & ebd' azz |\
[a3e'3] f'e'd' | x3 x2c' & c'ba [e'2e2] !p!a | c'2d' c'2d' & a2a a2a |  c'ba e2A |]


